X:1
T:Le bien promis
T:Claudin de Sermisy
T:Source : Livre premier contenant 29 chansons nouvelles à 4 parties---Paris---P.Attaignant---1535. Editor :  André Vierendeels (23/04/18) Notes : Original clefs : CI, C3, C3, F4 Original note values have been halved Editorial accidentals above the staff
T:Le bien promis
T:©
T:©
C:Claudin de Sermisy
Z:©
%%score [ 1 [ 2 3 ] 4 ]
L:1/8
Q:1/4=120
M:2/2
K:F
V:1 treble nm="Soprano" snm="S"
V:2 treble-8 nm="Tenor 1" snm="T 1"
V:3 treble-8 nm="Tenor 2" snm="T 2"
V:4 bass nm="Bass" snm="B"
V:1
 F8 | F4 G4 | E4 z2 E2 | F2 F2 E2 D2 | C3 D EFGF | DE F2 EDEF | G2 F4 E2 | F4 z2 F2 | G2 G2 A4 | %9
w: Le|bien pro-|mis a-|pres la lon- gue'at-|ten- * * * * *|||te, me|faict tour- ner|
 A8 | d4 c4 | B2 A4 GF | E4 z2 E2 | F2 G2 A4 | A4 A2 A2 | F3 G AB c2- | cB A4 G2 | A8 | F8 | %19
w: tout|mon mal|en bon- * *|heur, et|mon es- poir|plus grand que|mon _ _ _ mal-||heur|faict|
 F4 G4 | E4 z2 c2 | c2 A2 B2 c2 | A3 F G2 A2- | AG F4 E2 | F8 |] %25
w: qu'à ia-|mais, de-|meu- re- ray con-|ten- * * *||te.|
V:2
 c8 | d4 d4 | c4 z2 c2 | d2 B2 c2 A2- | A2 G2 c2 d2 | B2 c4 c2 | d2 B2 c4 | z2 c2 d2 d2 | %8
w: Le|bien pro-|mis a-|pres la lon- gue'at-|* ten- * *||* * te,|me faict tour-|
 e4 z2 c2 | f3 e d2 c2 | f4 e3 d/c/ | d2 c4 B2 | c4 z4 | z4 z2 f2 | f4 e4 | d2 f2 f2 e2 | f4 d4 | %17
w: ner tout|mon _ _ mal|en bon- * *||heur,|et|mon es-|poir plus grand que|mon mal-|
 d8 | c8 | d4 d4 | c4 c2 c2 | A2 f2 d2 c2 | f4 _edcB | c2 d2 c4 | c8 |] %25
w: heur|faict|qy'à ia-|mais, de- meu-|re- ray con- ten-|||te.|
V:3
 A8 | A4 B4 | G4 z2 A2 | A2 F2 G2 F2 | EDEF GABA | FGAB cBGA | BAGF G4 | F2 A2 A4 | c4 F4- | %9
w: Le|bien pro-|mis, a-|pres la lon- gue'at-|ten- * * * * * * *|||te, me faict|tour- ner|
 F4 A4 | A6 A2 | F4 F4 | G2 c2 c4 | B4 A4 | z2 d4 c2 | B2 A4 G2 | A4 B4 | A8 | A8 | A4 B4 | %20
w: _ tout|mon mal|en bon-|heur, et mon|es- poir|plus grand|que mon mal-||heur,|faict|qu'à ia-|
 G2 G2 G2 E2 | F4 G2 AB | cA d2 cBAG | A2 B2 G4 | F8 |] %25
w: mais, de- meu- re|ray con- ten- *|||te.|
V:4
 F,8 | D,4 G,4 | C,4 z2 A,,2 | D,2 D,2 C,2 D,2 | A,,2 C,3 B,,G,,A,, | B,,A,,F,,G,, A,,B,, C,2 | %6
w: Le|bien pro-|mis, pres|la lon- gue'at- ten-|||
 B,,2 D,2 C,4 | z2 F,2 D,2 D,2 | C,4 z4 | z2 D,2 F,3 E, | D,2 D,2 A,,4 | D,8 | C,4 z2 C,2 | %13
w: * * te,|me faict tour-|ner|tout mon _|_ mal en|bon-|heur, mon|
 D,2 E,2 F,4 | D,4 A,4 | D,3 E, F,2 C,2 | F,4 G,4 | D,8 | F,8 | D,4 G,4 | C,8 | z4 z2 F,2 | %22
w: es- poir plus|grand que|mon _ _ mal-||heur,|faict|qu'à ia-|mais|de-|
 F,2 D,2 _E,2 F,2- | F,2 B,,2 C,4 | F,,8 |] %25
w: meu- re- ray con-|* ten- *|te.|

